X:20
T:Schottis
R:schottis
Z:id:hn-schottis-20
M:C|
K:D
D2FA d2BA | d2BA d2d2 | D2FA d2BA | d2BA c2c2 |
A2ce g2fe | g2fe a2a2 | abaf g2ec | e2d2 d2z2 :|
|: abaf dfA2 | abaf dfA2 | f2ed f2ed | f2ed e4 |
gage ceA2 | gage ceA2 | g2fe a2gf | e2dc d4 :|
<end>
<start>
